!!!ONB: MCCC : IJB0013_01 : Extracted Monophonic Melody
!!!COM: Brahms, Johannes
!!!OPR: 11 Chorale Preludes
!!!OMV: 1
!!!SCT: Op.122 (posth.)
!!!ODT: 1896///
**kern
*staff1
*clefG2
*k[f#]
*G:
*M4/4
8b
=3
8g
8f#
8e
8b
8cc
8ee
8dd
8cc
=4
8.b
16b
16a
16b
16g
16a
4b
4dd
=5
4ee
16cc#
16dd
16b
16cc#
8dd
16cc#
16b-
8f#
16b
16g
=6
16e
16g
16b
16a
16g
16b
8ee
16dd
16b
8cc
8cc
16b
16a
=7
4dd
8cc
16b[
16b]
4a
8r
8f#
=8
16g[
16g]
8a
16b[
16b]
8e
8d#
8B
8c#
8d#
=9
8e
8c#
8d#
8e
4a
4g
=10
2r
4r
8r
8ee
=11
8dd#
8ee
16ff#[
16ff#]
8b
8a
16f#[
16f#]
8g
8a
=12
4b
4ee
16bb
16aa
16gg
16ff#
16gg
16ff#
16ee
16dd#
=13
8.ee
16cc#
16dd#
16ee
16ff#
16dd#
16ee
16dd
16cc#
16b
8a
8dd
=14
4cc#
4r
2r
=15
4r
8r
8g
16a
16f#
16g
16a
8b
8a
=16
8g
8g
4f#
8e
8ee
16dd#
16ff#
16ee
16dd
=17
16cc#[
16cc#]
4ee
16ff#
16ee
16dd#[
16dd#]
4ff#
16gg
16ff#
=18
8.bb
16gg
16ee
16cc#
16dd#
16ee
16ff#[
16ff#]
8ee
4dd#
=19
16ee
16ee
16ee
16ee
8ee
8ee
4ee
4ee[
=20
4.ee]
8ee
16b
16cc#
16b
16dd
16gg
16ff#
16ee
16dd
=21
2r
8dd
16cc
16dd
8ee
8ee
=22
16a
8.b
8cc
16b
16cc#
8dd
8dd
16ee
16ff#
16gg
16ee
=23
16b-
16b
16cc#
16ee
16dd#
16ff#
16b
16a
16g
16a
16g
16b
16ee
16dd
16cc#
16b
=24
16a
16g
16f#
16a
16dd
16cc#
16b
16a
16g
16f#
16e
16g
16cc#
16b
16a
16g
=25
16g
32a
32g
16f#
16g
16a
16e
16f#
16g
4f#
4b
=26
8r
8dd
16ee[
16ee]
8cc#
16g#[
16g#]
8a#
8b
8cc#
=27
4dd
8dd
8cc#
4b
4b
=28
4b[
8b]
16a
16g
16f#[
16f#]
8G
4c
=29
4F#
8g
8g
4b
4b
=30
8b-
8a[
16a]
16e
16f#
16g
8f#
16dd[
16dd]
8dd
8ee
=31
4ee
8dd#
8dd[
8dd]
16b
16cc
8b
8b
=32
4b
8dd
8cc#
8cc#
8ff#
8ff#
8ee
=33
16ee
16dd
16cc#
16b
8a
8dd[
16dd]
16cc
16b
16a
16g
16b
16a
16g
=34
8f#
8a
8a
8b[
16b]
16a
8gg
8gg
8aa[
=35
8aa]
16ff#
16ee
16dd#
16ff#
16ee
16dd#
4.cc#
8bb-[
=36
16bb-]
16bb
16ff#
16dd#
8b
8a
8a
8b
4g
=37
16r
16f#
16b-
16cc#
8ff#
8a[
16a]
16e
16g#
16b
8ee
8g[
=38
16g]
16f#
16a
16dd
16ff#
16g#
16b
16ee
16gg#
16aa
16ff#
16ee
16dd#[
16dd#]
8a[
=39
8a]
16g#
16b
16ee[
16ee]
16e
16a
16cc#
16d#
16f#
16b
16dd#
16ee
16cc#
16b
=40
8a#
16b
16a
8g
16b-
16g
4f#
4r
=41
8r
8gg
4ee
16r
16dd
16b
16a
16g[
16g]
16g
16b
=42
16dd
16bb
16gg
16dd
16b
16dd
16b
16g
16e
16E
8b
8b
8cc#
=43
4.a#
8b
4r
8r
8f
=44
4f#[
16f#]
16e
16d
16c#
4B
4b
=45
8cc#
16b
16cc#
4dd#
4ee
4ff#
=46
8.dd
16b
4cc#
4b
8a
16b
16a
=47
4g
4f#
16r
16f#
16g
16a
8b
16cc
16b
=48
16a
16b
16cc
16dd
8ee
16ff#
16ee
4dd#
4b
=49
8cc#
16b
16cc#
4dd#[
8dd#]
16cc#
16dd#
4ee[
=50
4ee]
8dd#
8ee
4ff#
4dd#
=51
4r
4ee
8dd
16ee
16dd
4cc
=52
8b
16cc
16b
4a
2r
=53
1r
==
*-
